Newaita/actions/32/stroke-join-bevel.svg

<?xml version="1.0" encoding="UTF-8"?>
<svg xmlns="http://www.w3.org/2000/svg" xmlns:xlink="http://www.w3.org/1999/xlink" width="32pt" height="32pt" viewBox="0 0 32 32" version="1.1">
<g id="surface1">
<path style=" stroke:none;fill-rule:nonzero;fill:rgb(25.882354%,25.882354%,25.882354%);fill-opacity:1;" d="M 14.554688 13.480469 L 14.554688 30.679688 L 22.492188 30.679688 L 22.492188 21.417969 L 27.785156 21.417969 L 27.785156 13.480469 Z M 16.539062 15.464844 L 25.800781 15.464844 L 25.800781 19.433594 L 20.507812 19.433594 L 20.507812 28.695312 L 16.539062 28.695312 Z M 16.539062 15.464844 "/>
<path style=" stroke:none;fill-rule:evenodd;fill:rgb(25.882354%,25.882354%,25.882354%);fill-opacity:1;" d="M 13.230469 1.574219 L 3.96875 8.1875 L 3.96875 30.679688 L 11.90625 30.679688 L 11.90625 13.480469 L 17.199219 9.511719 L 26.460938 9.511719 L 26.460938 1.574219 Z M 13.867188 3.585938 L 24.476562 3.585938 L 24.476562 7.496094 L 15.238281 7.496094 L 9.894531 11.773438 L 9.894531 28.695312 L 5.984375 28.695312 L 5.984375 9.894531 Z M 13.867188 3.585938 "/>
</g>
</svg>

<svg xmlns="http://www.w3.org/2000/svg" width="32pt" height="32pt" viewBox="0 0 32 32"><g fill="#424242"><path d="M14.555 13.48v17.2h7.937v-9.262h5.293V13.48zm1.984 1.985h9.262v3.969h-5.293v9.261h-3.969zm0 0"/><path d="M13.23 1.574L3.97 8.188V30.68h7.937v-17.2L17.2 9.512h9.262V1.574zm.637 2.012h10.61v3.91h-9.239l-5.343 4.277v16.922h-3.91v-18.8zm0 0" fill-rule="evenodd"/></g></svg>
